packages/swarm-icons/src/icons/solid/Share.svg

<svg xmlns="http://www.w3.org/2000/svg" width="18" height="18" viewBox="0 0 18 18">
  <path fill="#A2A2A2" d="M8,3.41530258 L6.70680883,4.70740461 C6.31612005,5.09776435 5.68295512,5.0974976 5.29259539,4.70680883 C4.90223565,4.31612005 4.9025024,3.68295512 5.29319117,3.29259539 L8.29571995,0.292595388 C8.68640882,-0.0977644449 9.31957394,-0.0974975897 9.70993364,0.293191426 L12.7074049,3.29319143 C13.0977645,3.68388034 13.0974975,4.31704527 12.7068086,4.70740486 C12.3161197,5.09776446 11.6829547,5.09749749 11.2925951,4.70680857 L10,3.41312296 L10,9 C10,9.55228475 9.55228475,10 9,10 C8.44771525,10 8,9.55228475 8,9 L8,3.41530258 Z M13.5,9 C12.9477153,9 12.5,8.55228475 12.5,8 C12.5,7.44771525 12.9477153,7 13.5,7 L15,7 C15.5522847,7 16,7.44771525 16,8 L16,15.5 C16,16.0522847 15.5522847,16.5 15,16.5 L3,16.5 C2.45214478,16.5 2.0062857,16.0591755 2.00006448,15.5113556 L1.91489206,8.01135559 C1.90857013,7.45466677 2.35810288,7 2.91482759,7 L4.55,7 C5.10228475,7 5.55,7.44771525 5.55,8 C5.55,8.55228475 5.10228475,9 4.55,9 L3.92624839,9 L3.98870816,14.5 L14,14.5 L14,9 L13.5,9 Z"/>
</svg>

<svg xmlns="http://www.w3.org/2000/svg" width="18" height="18"><path fill="#A2A2A2" d="M8 3.415L6.707 4.707a1 1 0 01-1.414-1.414l3.003-3a1 1 0 011.414 0l2.997 3a1 1 0 11-1.414 1.414L10 3.413V9a1 1 0 11-2 0V3.415zM13.5 9a1 1 0 010-2H15a1 1 0 011 1v7.5a1 1 0 01-1 1H3a1 1 0 01-1-.989l-.085-7.5a1 1 0 011-1.011H4.55a1 1 0 110 2h-.624l.063 5.5H14V9h-.5z"/></svg>
